img/icons/this/catalog/cactus.svg

<svg width="62" height="140" viewBox="0 0 62 140" fill="none" xmlns="http://www.w3.org/2000/svg">
<path d="M43.8159 82.4482H42.4598C44.1564 80.722 45.6664 77.5533 48.4322 70.0216C50.2683 64.9965 50.1405 60.3025 48.0487 56.4598C45.6548 52.0614 41.3434 49.7676 38.3684 49.141C32.9762 48.0059 25.6085 47.8995 21.0995 50.9855C18.787 52.5698 17.3343 54.8991 16.7998 57.9023C14.4407 71.0029 22.924 80.0007 25.5736 82.4482H24.2879C21.5221 79.8943 13.1972 71.3931 15.6609 57.6895C16.2536 54.367 17.8689 51.7777 20.4604 50.0041C26.5149 45.854 35.8815 47.4029 38.6124 47.9823C41.8198 48.6562 46.4915 51.1274 49.0714 55.8805C51.3258 60.0424 51.4885 65.0675 49.5246 70.4236C46.6658 78.239 45.6636 80.5683 43.8159 82.4482Z" fill="#92B69A"/>
<path d="M9.78057 82.448C4.71379 79.9887 2.04096 76.1815 2.27338 71.724C2.5639 65.9895 5.38782 64.4524 7.04963 64.0386C10.5941 63.1636 15.1611 65.6348 17.4737 69.6667L16.4627 70.2578C14.4406 66.7107 10.3268 64.4406 7.31691 65.1855C4.95784 65.7649 3.60979 68.0468 3.42385 71.7831C3.15657 77.1037 9.41012 81.1593 12.083 82.448H9.78057Z" fill="#92B69A"/>
<path d="M47.0375 54.0829L46.4681 53.0543C54.2193 48.6677 58.0659 39.8472 57.8567 33.3915C57.7172 28.9813 55.7766 25.6588 52.3948 24.0272C49.5826 22.6793 47.0492 22.8566 44.8412 24.5592C40.0998 28.2246 37.8453 38.5585 39.5652 48.5731L38.4263 48.7741C36.6018 38.1801 38.9958 27.5979 44.1323 23.6134C46.6773 21.6506 49.6987 21.4141 52.8829 22.9512C56.6714 24.7721 58.8445 28.4729 59.0072 33.3442C59.2861 41.2897 54.2426 50.0038 47.0375 54.0829Z" fill="#92B69A"/>
<path d="M50.0011 68.7206C49.8733 68.7206 49.757 68.7206 49.6292 68.7088L49.6757 67.5264C52.8018 67.6683 55.2073 65.9893 56.2183 64.2985C56.5669 63.7192 57.055 62.5959 56.4856 61.5791C56.0324 60.7869 55.2538 59.8055 54.1033 59.6991C53.0342 59.6045 51.8256 60.2785 50.6519 61.6737L49.7687 60.9051C51.5815 58.7651 53.1852 58.4222 54.2195 58.5286C55.521 58.6586 56.6599 59.5099 57.4966 60.9997C58.1358 62.123 58.0312 63.5536 57.2177 64.9252C56.0556 66.8288 53.406 68.7206 50.0011 68.7206Z" fill="#92B69A"/>
<path d="M22.0292 49.8855C16.1025 42.0582 13.2669 32.6466 14.4407 24.7129C15.1612 19.8297 17.311 15.9752 20.6579 13.5632C25.6201 9.98063 32.6043 11.4231 37.4851 13.9534C42.4473 16.5309 45.7942 20.3973 45.8174 23.5778L44.6553 23.5897C44.6321 20.8821 41.4596 17.3586 36.9506 15.0057C32.3719 12.6291 25.8641 11.2458 21.3203 14.5209C18.2407 16.7438 16.2535 20.3263 15.5911 24.8784C14.4639 32.4929 17.2181 41.5735 22.9472 49.1524L22.0292 49.8855Z" fill="#92B69A"/>
<path d="M36.4509 48.5971L35.6955 47.6984C36.8576 46.6934 38.0662 44.8253 38.0778 44.8135L39.054 45.4638C38.9959 45.5347 37.7408 47.4738 36.4509 48.5971Z" fill="#92B69A"/>
<path d="M16.939 55.4074C10.2569 52.9481 5.85255 47.6274 4.53937 40.4268C3.85372 36.6551 5.75958 32.3158 8.79268 30.755C10.1059 30.0811 12.7438 29.3953 15.5677 32.4577L14.7194 33.2617C12.9879 31.3817 11.1285 30.8733 9.31562 31.8074C6.75899 33.1198 5.09717 36.9625 5.67822 40.2022C6.39873 44.1276 8.85077 51.1745 17.3341 54.2841L16.939 55.4074Z" fill="#92B69A"/>
<path d="M41.436 17.5478L40.8085 16.5428C43.5395 14.7811 45.3988 10.7138 45.1432 7.06024C44.9688 4.61274 43.83 2.7919 41.9241 1.94059C39.8556 1.00652 37.8684 1.20752 36.3228 2.50813C34.0102 4.47086 33.1851 8.52638 34.2078 12.842L33.0805 13.1258C31.93 8.30173 32.8946 3.87967 35.5791 1.59771C37.4501 0.0133344 39.9253 -0.25861 42.389 0.864639C44.7016 1.90512 46.0845 4.08068 46.2937 6.9893C46.5958 11.033 44.504 15.5733 41.436 17.5478Z" fill="#92B69A"/>
<path d="M23.4351 36.9504C21.936 36.9504 21.936 39.3152 23.4351 39.3152C24.9342 39.3152 24.9342 36.9504 23.4351 36.9504Z" fill="#92B69A"/>
<path d="M25.4688 20.9885C23.9697 20.9885 23.9697 23.3533 25.4688 23.3533C26.968 23.3533 26.968 20.9885 25.4688 20.9885Z" fill="#92B69A"/>
<path d="M30.6983 32.8123C29.1992 32.8123 29.1992 35.177 30.6983 35.177C32.1975 35.177 32.1975 32.8123 30.6983 32.8123Z" fill="#92B69A"/>
<path d="M38.8331 20.6929C37.334 20.6929 37.334 23.0576 38.8331 23.0576C40.3322 23.0576 40.3322 20.6929 38.8331 20.6929Z" fill="#92B69A"/>
<path d="M22.6566 54.0947C21.1575 54.0947 21.1575 56.4595 22.6566 56.4595C24.1557 56.4595 24.1557 54.0947 22.6566 54.0947Z" fill="#92B69A"/>
<path d="M34.8587 70.4585C33.3596 70.4585 33.3596 72.8232 34.8587 72.8232C36.3579 72.8232 36.3579 70.4585 34.8587 70.4585Z" fill="#92B69A"/>
<path d="M45.7012 58.635C44.2021 58.635 44.2021 60.9997 45.7012 60.9997C47.2003 60.9997 47.2003 58.635 45.7012 58.635Z" fill="#92B69A"/>
<path d="M35.8233 54.4968C34.3241 54.4968 34.3241 56.8616 35.8233 56.8616C37.3224 56.8616 37.3224 54.4968 35.8233 54.4968Z" fill="#92B69A"/>
<path d="M24.7833 66.9114C23.2842 66.9114 23.2842 69.2761 24.7833 69.2761C26.2824 69.2761 26.2824 66.9114 24.7833 66.9114Z" fill="#92B69A"/>
<path d="M40.0882 77.9431C38.5891 77.9431 38.5891 80.3079 40.0882 80.3079C41.5873 80.3079 41.5873 77.9431 40.0882 77.9431Z" fill="#92B69A"/>
<path d="M37.764 61.9814C36.2649 61.9814 36.2649 64.3462 37.764 64.3462C39.2632 64.3462 39.2632 61.9814 37.764 61.9814Z" fill="#92B69A"/>
<path d="M32.732 41.2898C31.2329 41.2898 31.2329 43.6545 32.732 43.6545C34.2311 43.6545 34.2311 41.2898 32.732 41.2898Z" fill="#92B69A"/>
<path d="M40.8668 11.3406C39.3677 11.3406 39.3677 13.7053 40.8668 13.7053C42.3659 13.7053 42.3659 11.3406 40.8668 11.3406Z" fill="#92B69A"/>
<path d="M37.5665 5.02686C36.0674 5.02686 36.0674 7.39159 37.5665 7.39159C39.0656 7.39159 39.0656 5.02686 37.5665 5.02686Z" fill="#92B69A"/>
<path d="M43.191 3.84424C41.6919 3.84424 41.6919 6.20897 43.191 6.20897C44.6901 6.20897 44.6901 3.84424 43.191 3.84424Z" fill="#92B69A"/>
<path d="M42.4124 32.4221C40.9133 32.4221 40.9133 34.7868 42.4124 34.7868C43.9116 34.7868 43.9116 32.4221 42.4124 32.4221Z" fill="#92B69A"/>
<path d="M49.385 26.7114C47.8859 26.7114 47.8859 29.0762 49.385 29.0762C50.8842 29.0762 50.8842 26.7114 49.385 26.7114Z" fill="#92B69A"/>
<path d="M53.6499 35.3779C52.1508 35.3779 52.1508 37.7427 53.6499 37.7427C55.1491 37.7427 55.1491 35.3779 53.6499 35.3779Z" fill="#92B69A"/>
<path d="M47.0608 40.1074C45.5617 40.1074 45.5617 42.4722 47.0608 42.4722C48.5599 42.4722 48.5599 40.1074 47.0608 40.1074Z" fill="#92B69A"/>
<path d="M49.385 47.0005C47.8859 47.0005 47.8859 49.3652 49.385 49.3652C50.8842 49.3652 50.8842 47.0005 49.385 47.0005Z" fill="#92B69A"/>
<path d="M41.4478 44.2454C39.9487 44.2454 39.9487 46.6101 41.4478 46.6101C42.9469 46.6101 42.9469 44.2454 41.4478 44.2454Z" fill="#92B69A"/>
<path d="M18.3917 27.4915C16.8926 27.4915 16.8926 29.8562 18.3917 29.8562C19.8908 29.8562 19.8908 27.4915 18.3917 27.4915Z" fill="#92B69A"/>
<path d="M30.5938 13.114C29.0947 13.114 29.0947 15.4787 30.5938 15.4787C32.0929 15.4787 32.0929 13.114 30.5938 13.114Z" fill="#92B69A"/>
<path d="M27.5025 76.1697C26.0034 76.1697 26.0034 78.5344 27.5025 78.5344C29.0017 78.5344 29.0017 76.1697 27.5025 76.1697Z" fill="#92B69A"/>
<path d="M45.1201 68.6851C43.621 68.6851 43.621 71.0498 45.1201 71.0498C46.6192 71.0498 46.6192 68.6851 45.1201 68.6851Z" fill="#92B69A"/>
<path d="M14.3245 48.585C12.8254 48.585 12.8254 50.9497 14.3245 50.9497C15.8236 50.9497 15.8236 48.585 14.3245 48.585Z" fill="#92B69A"/>
<path d="M17.0437 42.2712C15.5446 42.2712 15.5446 44.636 17.0437 44.636C18.5428 44.636 18.5428 42.2712 17.0437 42.2712Z" fill="#92B69A"/>
<path d="M9.67597 39.717C8.17686 39.717 8.17686 42.0818 9.67597 42.0818C11.1751 42.0818 11.1751 39.717 9.67597 39.717Z" fill="#92B69A"/>
<path d="M11.8142 33.8052C10.315 33.8052 10.315 36.1699 11.8142 36.1699C13.3133 36.1699 13.3133 33.8052 11.8142 33.8052Z" fill="#92B69A"/>
<path d="M6.38715 74.396C4.88804 74.396 4.88804 76.7607 6.38715 76.7607C7.88626 76.7607 7.88626 74.396 6.38715 74.396Z" fill="#92B69A"/>
<path d="M8.32783 66.3203C6.82871 66.3203 6.82871 68.685 8.32783 68.685C9.82694 68.685 9.82694 66.3203 8.32783 66.3203Z" fill="#92B69A"/>
<path d="M12.5812 72.4219C11.0821 72.4219 11.0821 74.7866 12.5812 74.7866C14.0803 74.7866 14.0803 72.4219 12.5812 72.4219Z" fill="#92B69A"/>
<path d="M16.8462 77.9431C15.3471 77.9431 15.3471 80.3079 16.8462 80.3079C18.3453 80.3079 18.3453 77.9431 16.8462 77.9431Z" fill="#92B69A"/>
<path d="M53.6499 61.5911C52.1508 61.5911 52.1508 63.9558 53.6499 63.9558C55.1491 63.9558 55.1491 61.5911 53.6499 61.5911Z" fill="#92B69A"/>
<path d="M54.834 86.0841H5.61892C4.63113 86.0841 3.82928 85.2682 3.82928 84.2632C3.82928 83.2582 4.63113 82.4424 5.61892 82.4424H54.834C55.8218 82.4424 56.6236 83.2582 56.6236 84.2632C56.6236 85.2682 55.8218 86.0841 54.834 86.0841ZM5.61892 83.6248C5.27029 83.6248 4.99139 83.9085 4.99139 84.2632C4.99139 84.6179 5.27029 84.9017 5.61892 84.9017H54.834C55.1826 84.9017 55.4615 84.6179 55.4615 84.2632C55.4615 83.9085 55.1826 83.6248 54.834 83.6248H5.61892Z" fill="#B692B2"/>
<path d="M51.3825 127.207L50.2437 126.958C52.4865 116.27 54.5899 98.6053 54.2413 85.5047L55.4034 85.4692C55.752 98.6645 53.6486 116.459 51.3825 127.207Z" fill="#B692B2"/>
<path d="M10.4069 127.219C7.83863 115.631 5.58415 98.0968 5.03796 85.5283L6.20007 85.481C6.73463 97.9904 8.97749 115.43 11.5341 126.97L10.4069 127.219Z" fill="#B692B2"/>
<path d="M54.7991 92.2441H6.08374V93.4265H54.7991V92.2441Z" fill="#B692B2"/>
<path d="M54.0785 103.772H7.25739V104.955H54.0785V103.772Z" fill="#B692B2"/>
<path d="M54.0785 106.882H7.65253V108.064H54.0785V106.882Z" fill="#B692B2"/>
<path d="M51.4058 123.494H10.337V124.676H51.4058V123.494Z" fill="#B692B2"/>
<path d="M54.8689 89.8914H5.90948V91.0737H54.8689V89.8914Z" fill="#B692B2"/>
<path d="M59.7497 130.352H2.44643C1.47026 130.352 0.69165 129.489 0.69165 128.425C0.69165 127.36 1.48188 126.497 2.44643 126.497H59.7497C60.7143 126.497 61.5045 127.36 61.5045 128.425C61.5045 129.489 60.7143 130.352 59.7497 130.352ZM2.44643 127.68C2.12104 127.68 1.85375 128.011 1.85375 128.425C1.85375 128.838 2.12104 129.169 2.44643 129.169H59.7497C60.0751 129.169 60.3424 128.838 60.3424 128.425C60.3424 128.011 60.0751 127.68 59.7497 127.68H2.44643Z" fill="#B692B2"/>
<path d="M30.6623 140C7.02508 140 6.25809 137.588 4.23603 131.156C4.11982 130.766 3.99199 130.364 3.85254 129.95L4.95654 129.572C5.09599 129.997 5.22382 130.399 5.35165 130.79C7.18778 136.631 7.87341 138.818 30.6739 138.818C55.4383 138.818 56.6934 138.392 57.5649 129.702L58.7271 129.82C57.7276 139.681 55.0199 140 30.6623 140Z" fill="#B692B2"/>
</svg>

<svg width="62" height="140" fill="none" xmlns="http://www.w3.org/2000/svg"><path d="M43.816 82.448H42.46c1.696-1.726 3.206-4.895 5.972-12.426 1.836-5.026 1.709-9.72-.383-13.562-2.394-4.399-6.706-6.692-9.68-7.319-5.393-1.135-12.76-1.241-17.27 1.845-2.312 1.584-3.765 3.913-4.3 6.916-2.358 13.1 6.125 22.099 8.775 24.546h-1.286c-2.766-2.554-11.09-11.055-8.627-24.758.593-3.323 2.208-5.912 4.8-7.686 6.054-4.15 15.42-2.601 18.151-2.022 3.208.674 7.88 3.145 10.46 7.898 2.254 4.162 2.416 9.187.453 14.544-2.86 7.815-3.861 10.144-5.71 12.024z" fill="#92B69A"/><path d="M9.78 82.448c-5.066-2.46-7.739-6.266-7.507-10.724.29-5.734 3.115-7.272 4.777-7.685 3.544-.875 8.111 1.596 10.424 5.628l-1.011.59c-2.022-3.546-6.136-5.816-9.146-5.072-2.36.58-3.707 2.862-3.893 6.598-.267 5.32 5.986 9.376 8.659 10.665H9.781zm37.258-28.365l-.57-1.029c7.751-4.386 11.598-13.207 11.389-19.663-.14-4.41-2.08-7.732-5.462-9.364-2.812-1.348-5.346-1.17-7.554.532-4.741 3.666-6.996 14-5.276 24.014l-1.139.201c-1.824-10.594.57-21.176 5.706-25.16 2.545-1.963 5.567-2.2 8.75-.663 3.79 1.821 5.962 5.522 6.125 10.393.28 7.946-4.764 16.66-11.97 20.739zm2.963 14.637c-.128 0-.244 0-.372-.011l.047-1.183c3.126.142 5.531-1.537 6.542-3.227.349-.58.837-1.703.268-2.72-.454-.792-1.232-1.773-2.383-1.88-1.069-.094-2.277.58-3.451 1.975l-.883-.769c1.813-2.14 3.416-2.483 4.45-2.376 1.302.13 2.44.98 3.278 2.47.639 1.124.534 2.555-.28 3.926-1.161 1.904-3.811 3.796-7.216 3.796z" fill="#92B69A"/><path d="M22.03 49.886c-5.928-7.828-8.763-17.24-7.59-25.173.721-4.883 2.871-8.738 6.218-11.15 4.962-3.582 11.946-2.14 16.827.39 4.962 2.578 8.31 6.444 8.332 9.625l-1.162.012c-.023-2.708-3.195-6.231-7.704-8.584-4.58-2.377-11.087-3.76-15.63-.485-3.08 2.223-5.068 5.805-5.73 10.357-1.127 7.615 1.627 16.696 7.356 24.274l-.918.733zm14.42-1.289l-.755-.899c1.163-1.005 2.371-2.873 2.383-2.885l.976.65c-.058.072-1.313 2.01-2.603 3.134z" fill="#92B69A"/><path d="M16.939 55.407c-6.682-2.459-11.086-7.78-12.4-14.98-.685-3.772 1.22-8.111 4.254-9.672 1.313-.674 3.95-1.36 6.775 1.703l-.849.804c-1.731-1.88-3.59-2.389-5.403-1.455-2.557 1.313-4.219 5.155-3.638 8.395.72 3.926 3.173 10.973 11.656 14.082l-.395 1.123zm24.497-37.859l-.627-1.005c2.73-1.762 4.59-5.83 4.334-9.483-.174-2.447-1.313-4.268-3.219-5.12-2.068-.933-4.056-.732-5.601.568-2.313 1.963-3.138 6.018-2.115 10.334l-1.127.284c-1.151-4.824-.186-9.246 2.498-11.528C37.45.013 39.925-.26 42.39.865c2.313 1.04 3.695 3.216 3.905 6.124.302 4.044-1.79 8.584-4.858 10.559zM23.435 36.95c-1.499 0-1.499 2.365 0 2.365 1.5 0 1.5-2.365 0-2.365zm2.034-15.962c-1.5 0-1.5 2.365 0 2.365 1.499 0 1.499-2.365 0-2.365zm5.229 11.824c-1.499 0-1.499 2.365 0 2.365 1.5 0 1.5-2.365 0-2.365zm8.135-12.119c-1.499 0-1.499 2.365 0 2.365 1.5 0 1.5-2.365 0-2.365zM22.657 54.095c-1.5 0-1.5 2.364 0 2.364 1.499 0 1.499-2.364 0-2.364zm12.202 16.364c-1.5 0-1.5 2.364 0 2.364 1.499 0 1.499-2.364 0-2.364zm10.842-11.824c-1.499 0-1.499 2.365 0 2.365 1.5 0 1.5-2.365 0-2.365zm-9.878-4.138c-1.499 0-1.499 2.365 0 2.365 1.5 0 1.5-2.365 0-2.365zm-11.04 12.414c-1.499 0-1.499 2.365 0 2.365 1.5 0 1.5-2.365 0-2.365zm15.305 11.032c-1.499 0-1.499 2.365 0 2.365 1.5 0 1.5-2.365 0-2.365zm-2.324-15.962c-1.5 0-1.5 2.365 0 2.365s1.5-2.365 0-2.365zM32.732 41.29c-1.5 0-1.5 2.364 0 2.364s1.5-2.364 0-2.364z" fill="#92B69A"/><path d="M40.867 11.34c-1.5 0-1.5 2.365 0 2.365 1.499 0 1.499-2.364 0-2.364zm-3.301-6.313c-1.499 0-1.499 2.365 0 2.365 1.5 0 1.5-2.365 0-2.365zm5.625-1.183c-1.5 0-1.5 2.365 0 2.365s1.5-2.365 0-2.365zm-.779 28.578c-1.499 0-1.499 2.365 0 2.365 1.5 0 1.5-2.365 0-2.365zm6.973-5.711c-1.5 0-1.5 2.365 0 2.365s1.5-2.365 0-2.365zm4.265 8.667c-1.5 0-1.5 2.365 0 2.365s1.5-2.365 0-2.365zm-6.59 4.729c-1.498 0-1.498 2.365 0 2.365 1.5 0 1.5-2.365 0-2.365zM49.385 47c-1.5 0-1.5 2.365 0 2.365s1.5-2.364 0-2.364zm-7.937-2.755c-1.5 0-1.5 2.365 0 2.365 1.499 0 1.499-2.365 0-2.365zM18.392 27.491c-1.5 0-1.5 2.365 0 2.365 1.499 0 1.499-2.365 0-2.365zm12.202-14.377c-1.5 0-1.5 2.365 0 2.365 1.499 0 1.499-2.365 0-2.365zM27.503 76.17c-1.5 0-1.5 2.364 0 2.364 1.499 0 1.499-2.364 0-2.364zm17.617-7.485c-1.499 0-1.499 2.365 0 2.365 1.5 0 1.5-2.365 0-2.365zm-30.795-20.1c-1.5 0-1.5 2.365 0 2.365 1.499 0 1.499-2.365 0-2.365zm2.719-6.314c-1.5 0-1.5 2.365 0 2.365 1.499 0 1.499-2.365 0-2.365zm-7.368-2.554c-1.5 0-1.5 2.365 0 2.365s1.5-2.365 0-2.365zm2.138-5.912c-1.499 0-1.499 2.365 0 2.365 1.5 0 1.5-2.365 0-2.365zM6.387 74.396c-1.499 0-1.499 2.365 0 2.365 1.5 0 1.5-2.365 0-2.365zm1.941-8.076c-1.5 0-1.5 2.365 0 2.365 1.499 0 1.499-2.365 0-2.365zm4.253 6.102c-1.499 0-1.499 2.365 0 2.365 1.5 0 1.5-2.365 0-2.365zm4.265 5.521c-1.499 0-1.499 2.365 0 2.365 1.5 0 1.5-2.365 0-2.365zM53.65 61.591c-1.5 0-1.5 2.365 0 2.365s1.5-2.365 0-2.365z" fill="#92B69A"/><path d="M54.834 86.084H5.619c-.988 0-1.79-.816-1.79-1.82 0-1.006.802-1.822 1.79-1.822h49.215c.988 0 1.79.816 1.79 1.821s-.802 1.821-1.79 1.821zm-49.215-2.46a.63.63 0 00-.628.64.63.63 0 00.628.638h49.215a.63.63 0 00.627-.639.63.63 0 00-.627-.638H5.619z" fill="#B692B2"/><path d="M51.383 127.207l-1.14-.249c2.243-10.688 4.347-28.353 3.998-41.453l1.162-.036c.349 13.196-1.754 30.99-4.02 41.738zm-40.976.012c-2.568-11.588-4.823-29.122-5.369-41.69L6.2 85.48c.535 12.51 2.777 29.949 5.334 41.489l-1.127.249z" fill="#B692B2"/><path d="M54.8 92.244H6.083v1.183h48.715v-1.183zm-.722 11.528H7.258v1.183h46.82v-1.183zm0 3.11H7.654v1.182h46.425v-1.182zm-2.672 16.612H10.337v1.182h41.069v-1.182zm3.463-33.603H5.909v1.183h48.96V89.89zm4.881 40.461H2.446c-.976 0-1.754-.863-1.754-1.927 0-1.065.79-1.928 1.754-1.928H59.75c.964 0 1.755.863 1.755 1.928 0 1.064-.79 1.927-1.755 1.927zM2.446 127.68c-.325 0-.592.331-.592.745 0 .413.267.744.592.744H59.75c.325 0 .592-.331.592-.744 0-.414-.267-.745-.592-.745H2.446z" fill="#B692B2"/><path d="M30.662 140c-23.637 0-24.404-2.412-26.426-8.844a35.88 35.88 0 00-.383-1.206l1.104-.378c.139.425.267.827.395 1.218 1.836 5.841 2.521 8.028 25.322 8.028 24.764 0 26.02-.426 26.89-9.116l1.163.118c-1 9.861-3.707 10.18-28.065 10.18z" fill="#B692B2"/></svg>
